www/assets/icons/pan_tool.svg

<svg xmlns="http://www.w3.org/2000/svg" width="24" height="24" viewBox="0 0 24 24" fill='currentColor'><path d="M23 5.5V20c0 2.2-1.8 4-4 4h-7.3c-1.08 0-2.1-.43-2.85-1.19L1 14.83s1.26-1.23 1.3-1.25c.22-.19.49-.29.79-.29.22 0 .42.06.6.16.04.01 4.31 2.46 4.31 2.46V4c0-.83.67-1.5 1.5-1.5S11 3.17 11 4v7h1V1.5c0-.83.67-1.5 1.5-1.5S15 .67 15 1.5V11h1V2.5c0-.83.67-1.5 1.5-1.5s1.5.67 1.5 1.5V11h1V5.5c0-.83.67-1.5 1.5-1.5s1.5.67 1.5 1.5"/></svg>

<svg width="24" height="24" viewBox="0 0 24 24" xmlns="http://www.w3.org/2000/svg" fill='currentColor'><path d="M23 5.5V20C23 22.2 21.2 24 19 24H11.7C10.62 24 9.6 23.57 8.85 22.81L1 14.83C1 14.83 2.26 13.6 2.3 13.58C2.52 13.39 2.79 13.29 3.09 13.29C3.31 13.29 3.51 13.35 3.69 13.45C3.73 13.46 8 15.91 8 15.91V4C8 3.17 8.67 2.5 9.5 2.5C10.33 2.5 11 3.17 11 4V11H12V1.5C12 0.67 12.67 0 13.5 0C14.33 0 15 0.67 15 1.5V11H16V2.5C16 1.67 16.67 1 17.5 1C18.33 1 19 1.67 19 2.5V11H20V5.5C20 4.67 20.67 4 21.5 4C22.33 4 23 4.67 23 5.5Z"/></svg>
